brandFactory_export/3.Masa/Quimica_3Masa.svg

<?xml version="1.0" encoding="UTF-8"?>
<svg width="24px" height="24px" viewBox="0 0 24 24" version="1.1" xmlns="http://www.w3.org/2000/svg" xmlns:xlink="http://www.w3.org/1999/xlink">
    <title>3.Masa/Quimica_3Masa</title>
    <g id="Symbols" stroke="none" stroke-width="1" fill="none" fill-rule="evenodd">
        <g id="3.Masa/Quimica_3Masa" fill="#5CB615" fill-rule="nonzero">
            <path d="M14.6218487,20.9647059 L14.4705882,20.9647059 C14.0369748,20.9546218 13.5596639,20.8168067 13.1966387,20.507563 C12.8302521,20.1983193 12.5781513,19.7243697 12.5781513,19.0084034 C12.5781513,17.589916 13.589916,17.0722689 14.4605042,17.0722689 L14.6218487,17.0722689 C15.492437,17.092437 16.5008403,17.6201681 16.5008403,19.0184874 C16.5008403,20.4268908 15.4890756,20.9445378 14.6218487,20.9647059 M9.17310924,12.1042017 L9.57983193,11.5563025 C9.68067227,11.4285714 9.73109244,11.2672269 9.73109244,11.1092437 L9.73109244,1.52268908 L13.9361345,1.52268908 L13.9361345,11.1092437 C13.9361345,11.2773109 13.9865546,11.4285714 14.087395,11.5563025 L14.5008403,12.1142857 C12.8403361,12.3630252 10.810084,12.3630252 9.17310924,12.1042017 M9.39495798,17.8957983 L9.30420168,17.8957983 C8.6789916,17.8857143 8.04033613,17.4789916 8.04033613,16.5848739 C8.04033613,15.7008403 8.67563025,15.2941176 9.30420168,15.2941176 L9.39495798,15.2941176 C10.0302521,15.3042017 10.6689076,15.7109244 10.6689076,16.594958 C10.6689076,17.4789916 10.0302521,17.8857143 9.39495798,17.8957983 M23.394958,21.3613445 L16.4302521,12.1714286 L15.4487395,10.8705882 L15.4487395,1.52268908 L16.389916,1.52268908 C16.8168067,1.52268908 17.1495798,1.18319328 17.1495798,0.776470588 C17.1495798,0.369747899 16.8168067,0.0302521008 16.389916,0.0302521008 L7.30420168,0.0302521008 C6.8907563,0.0302521008 6.54453782,0.369747899 6.54453782,0.776470588 C6.54453782,1.18319328 6.88739496,1.52268908 7.30420168,1.52268908 L8.21176471,1.52268908 L8.21176471,10.8705882 L7.24033613,12.1613445 L0.235294118,21.5596639 C-0.0268907563,21.9865546 -0.0403361345,22.5210084 0.21512605,22.9512605 C0.457142857,23.3882353 0.934453782,23.6571429 1.43865546,23.6571429 L22.1411765,23.6571429 C22.6957983,23.6571429 23.2134454,23.3680672 23.4756303,22.8907563 C23.7378151,22.4168067 23.7176471,21.8588235 23.394958,21.3613445" id="Quimica_3Masa"></path>
        </g>
    </g>
</svg>

<svg width="24" height="24" viewBox="0 0 24 24" xmlns="http://www.w3.org/2000/svg"><path d="M14.622 20.965h-.151c-.434-.01-.911-.148-1.274-.457-.367-.31-.619-.784-.619-1.5 0-1.418 1.012-1.936 1.883-1.936h.16c.871.02 1.88.548 1.88 1.946 0 1.409-1.012 1.927-1.88 1.947m-5.448-8.86l.407-.549c.1-.127.151-.289.151-.447V1.523h4.205v9.586c0 .168.05.32.151.447l.414.558c-1.66.249-3.69.249-5.328-.01m.222 5.792h-.09c-.626-.01-1.265-.417-1.265-1.311 0-.884.636-1.29 1.264-1.29h.091c.635.01 1.274.416 1.274 1.3 0 .884-.639 1.29-1.274 1.3m14 3.466l-6.965-9.19-.981-1.3V1.523h.94c.428 0 .76-.34.76-.747a.752.752 0 00-.76-.746H7.305a.76.76 0 00-.76.746c0 .407.343.747.76.747h.908v9.348l-.972 1.29L.235 21.56a1.344 1.344 0 00-.02 1.391 1.4 1.4 0 001.224.706H22.14c.555 0 1.072-.289 1.335-.766.262-.474.242-1.032-.081-1.53" fill="#5CB615" fill-rule="nonzero"/></svg>
